!!!!SEGMENT: pl-sa--553-a-ix-33--006_anonim--tema.krn
!!!cenid: 18xx:563
!!!COM: Anonim
!!!COM-rismID:
!!!CDT:
!!!CNT:
!!!OTL: Tema
!!!PDT:
!!!AGN: Secular
!!!SMS-siglum: PL-SA
!!!SMS-shelfmark: 553/A IX 33
!!!SMS-shelfwork: 006 W
!!!SMS-variant:
!!!SMS-altvar:
!!!NIFC-rismSourceID: 1001112142
!!!NIFC-islandoraID:
!!!URL-pdf-islandora:
!!!URL-scan: https://bc.bdsandomierz.pl/dlibra/publication/1309/edition/1277/content @EN{Scan on Cyfrowa Biblioteka Diecezjalna w Sandomierzu} @PL{Skany w portalu Cyfrowa Biblioteka Diecezjalna w Sandomierzu}
!!!ONB-nifc: Str. 16
!!!AIN: 2 piano
!!!key:
**kern	**kern
*part2	*part1
*staff2	*staff1
*Ipiano	*Ipiano
*I"Piano	*I"Piano
*I'pf	*I'pf
*clefF4	*clefG2
*k[]	*k[]
*C:	*C:
*M2/4	*M2/4
*	*Xtuplet
8r	24e/LL
.	24c/
.	24g/JJ
=1	=1
4C/	8g/L
.	32f/LL
.	32e/
.	32a/
.	32g/JJJ
4BB/	8g/L
.	8g/J
=2	=2
.	8qqa/
!LO:TX:a:t=P:problem=mixed beam	!
8C/L	16g/L
.	32f/
.	32e/J
8c\J	8e/
4C/	8r
.	8e/
=3	=3
8GG/	16d/LL
.	16f/
8r	16e/
.	16g/JJ
8GG/	16d/LL
.	16f/
8r	16e/
.	16g/JJ
=4	=4
8r	8f/L
8c\	8e/J
4C/	8r
.	8e/
=5	=5
8GG/	16d/LL
.	16f/
8r	16e/
.	16g/JJ
8GG/	16d/LL
.	16f/
8r	16e/
.	16d/JJ
=6	=6
!LO:N:vis=1	!
2F#X\	4d/
.	4c/
=7	=7
8GG/L	8B/L
8BB/J	8g/J
8C/L	16fn/LL
.	16e/
8C/J	16cc/
.	16a/JJ
=8	=8
*tremolo	*
16D/L	4g/
16D/	.
16D/	.
16D/J	.
*Xtremolo	*
16D/LL	4a/
16D/	.
16C/	.
16C/JJ	.
=9	=9
4BB/	8dd\L
.	16ee\L
.	16dd\JJ
4r	16dd\LL
.	16ee\
.	16ff#X\
.	16gg\JJ
=10	=10
8C/L	8.ee\L
8C/	.
.	32dd\LL
.	32cc\JJJ
8D/	8b\L
8D/J	8a\J
=11	=11
8G\L	2g/
8D\J	.
4GG/	.
!LO:TX:a:t=P:||:problem=w źródle kreska taktowa 	!LO:TX:a:t=P:||:problem=w źródle kreska taktowa 
=12||;	=12||;
!!LO:LB:g=original
!	!LO:TX:a:t=P:problem=w źródle łamanie systemu po podwójnej kresce taktowej, przed 8g
8r	8g/
!!LO:LB:g=original
=13	=13
8r	16g/LL
.	16b-X/JJ
8C#X/L	4b-/
8C#/	.
8C#/J	16a/LL
.	16g/JJ
=14	=14
4D/	16g/LL
.	16f#X/JJ
.	4f#/
4Cn/	.
.	8fn/
=15	=15
8r	16f/LL
.	16a/JJ
8BB/L	4a/
8BB/	.
8BB/J	16g/LL
.	16f/JJ
=16	=16
8r	16f/LL
.	16e/JJ
!LO:TX:a:t=P:problem=mixed beam	!
8c\L	4e/
8C/	.
8BB/J	8g/
=17	=17
4C/	8g/L
.	16a/L
.	16b/JJ
8r	16cc/LL
.	16g/
8C/	16f/
.	16e/JJ
=18	=18
!LO:TX:a:t=P:problem=mixed beam	!
8G\L	8e/
!	!LO:N:vis=4
8GG/	8d/
8GG/J	16d/LL
.	16f/
8r	16e/
.	16g/JJ
=19	=19
8r	16f/KL
.	8f/
8AA/L	.
.	16f/Jk
8BB/	16f/LL
.	32g/L
.	32a/JJJ
!	!LO:N:vis=8
8BB/J	16g/LL
!	!LO:N:vis=8
.	16f/JJ
=20	=20
!	!LO:TX:a:t=P:problem=mixed beam
4C\	16e/LL
.	16ee\
.	16dd\
.	16b\JJ
16E\LL	4cc\
16E\	.
16E\	.
16E\JJ	.
=21	=21
4F\	8cc/
.	16a/LL
.	32g/L
.	32f/JJJ
!LO:TX:a:t=P:problem=mixed beam	!
8G\L	8e/L
8GG/J	8d/J
=22	=22
!LO:TX:a:t=P:problem=mixed beam	!
8C/L	4e/
8c\J	.
4C/	8r
.	32d/LLL
.	32f/
.	32e/
.	32g/JJJ
=23	=23
8r	16f/KL
.	8f/
8AA/	.
.	16f/Jk
4BB/	16f/LL
.	32g/L
.	32a/JJJ
.	16g/LL
.	16f/JJ
!!LO:LB:g=original
=24	=24
!	!LO:TX:a:t=P:problem=mixed beam
4C\	16e/LL
.	16ee\
.	16dd\
.	16b\JJ
16E\LL	4cc\
16E\	.
16E\	.
16E\JJ	.
=25	=25
4F\	8cc\L
.	24a\L
.	24g\
.	24f\JJ
!LO:TX:a:t=P:problem=mixed beam	!
8G\L	8e/L
8GG/J	8d/J
=26	=26
!	!LO:TX:a:t=P:problem=mixed beam
8C\	16e/LL
.	32ee\L
.	32cc\JJJ
8r	16b\LL
.	32cc\L
.	32a\JJJ
!LO:TX:a:t=P:problem=mixed beam	!
16G\LL	16g/LL
16G\	32a/L
.	32f/JJJ
16GG/	16e/LL
16GG/JJ	32f/L
.	32d/JJJ
=27	=27
!	!LO:TX:a:t=P:problem=mixed beam
!	!LO:N:vis=24
4C\	48e/LLL
.	48cc\
.	48dd\
.	48ee\
.	48dd\
.	48cc\JJJ
!	!LO:N:vis=24
.	48b\LLL
.	48a\
.	48b\
.	48cc\
.	48b\
.	48a\JJJ
8r	24g/LLL
.	48f/
.	48g/
.	96a/
.	96g/
.	48f/JJJ
8G\	24e/LLL
.	48d/
.	48e/
.	96f/
.	96e/
.	48d/JJJ
=28	=28
8C/L	2e/
8GG/J	.
4CC/	.
!LO:TX:a:t=P:||:problem=w źródle kreska taktowa 	!LO:TX:a:t=P:||:problem=w źródle kreska taktowa 
==;	==;
*-	*-
!!!system-decoration: s1,s2
!!!EED: Antoni Szymański
!!!EEV: 2020-12-05
!!!ENC: Mateusz Solarz
!!!END: 2020-06-18
